X:526
%%etbk:tnset id:240,pos:3,rep:3x,ant:
%%etbk:wsite http://thesession.org/tunes/166
%%etbk:skill ?
%%etbk:pldat 2013-11-26T16:00,2013-11-20T15:18,2013-11-17T16:22,2013-11-16T15:37,2013-11-12T17:59,2013-11-11T18:04,2013-11-10T14:56,2013-11-09T15:46,2013-10-20T15:15,2013-10-05T15:42,2013-10-02T16:47,2013-09-30T18:29,2013-09-15T17:05,2013-09-12T18:46
T: The Green Mountain
Z: Piano Box Version by Martin Fleischmann
H: Created 2013-09-04 /  Last Modified 2013-09-30
R: reel
M: 4/4
L: 1/8
K: Dmaj
|:!4!A!2!FFF !4!A!2!F!1!EF | !1!D!2!FFF !1!AB!3!de| !5!f!3!ddd !4!efdB | !1!A!3!d!5!fd !4!efdB|
!4!A!2!FFF !4!A!2!F!1!EF | !1!D!2!FFF !1!AB!3!de| !5!f!3!ddd !4!efdB|1 !1!A!3!F!2!EF !1!D2 dB:|2 !1!A!3!F!2!EF !1!D2 !3!d!4!e||
|:!3!f!4!aaf !5!b!3!faf | !1!defd !2!e2de | !3!f2 df !2!ef!1!d!2!B | !1!A!3!d!5!fd !4!ef!3!d!4!e|
!3!f!4!aaf !5!b!3!faf | !1!defd !2!e2de | !3!f2 df !2!ef!1!d!2!B|1 !1!A!3!F!2!EF !1!D2 de:|2 !1!A!3!F!2!EF !1!D2 dB||
